X:1
T:Title
%%score { 1 | 2 }
L:1/8
M:4/4
K:C
V:1 treble nm="Grand Piano"
V:2 bass 
V:1
 z4 z2 z[Q:1/4=88] E | E[DF][_E^F][=EG] [=FA][EG][Gc][GA] | c2 B4 z D | DEFG BAGA | [EG]6 z [EG] | %5
 [EG][EA][EB][Ec] [Gd][CGc][CG][CGA] | [DGB]2 [Gd]4 z [Gd] | %7
 [^Fd][Fe][Fd][Fc] [DFB][EFc][DFB][CFA] |[M:7/8] [B,G]-[B,G]-[B,G]- [B,G]3 z |[M:1/8] [B,FG] | %10
[M:4/4] [Ec][EB][EA][EG] [Ec][EB][EA][EG] | B2 B2 B3 G | edBG edBG | [EA]2 [EA]2 [EA]3 [EG] | %14
 [EG][EA][EB][Ec] [Gd][Gc][EG][E^G] |[M:17/16] A^GAedA3/2Bc |[M:4/4] e[Gc][EG]E [FG]2 [Fd]2 | %17
[M:7/8] [Ec]-[Ec]-[Ec]- [Ec]3 z |] %18
V:2
 z4 z2 z [C,G,C] | [C,G,C][C,G,][C,A,][C,G,] [C,C][C,C][E,C][E,C] | [G,DF]2 [G,DF]4 z [G,B,] | %3
 [G,B,][G,C][G,D][G,E] [F,DF][G,CF][G,B,F][G,B,F] | [C,C]6 z [C,C] | %5
 [C,C][C,C][C,C][C,C] [E,C]E,F,_E, | D,2 [D,B,]4 z [D,B,] | [D,C][D,C][D,C][D,A,] D,D,D,D, | %8
[M:7/8] G,-G,-G,- G,3 z |[M:1/8] G, |[M:4/4] [C,G,][C,G,][C,C][C,C] [C,G,][C,G,][C,C][C,C] | %11
 [G,DF]2 [G,DF]2 [G,DF]3 [G,B,F] | [G,B,F][G,B,F][G,DF][G,B,F] [G,B,F][G,B,F][G,DF][G,B,F] | %13
 [C,C]2 [C,C]2 [C,C]3 [C,C] | [C,C][C,C][C,C][C,C] [E,C][E,C][C,C][C,C] | %15
[M:17/16] [F,CF][F,B,F][F,CF][F,A,F][F,A,F][F,CF]3/2[F,B,_E][E,A,E] | %16
[M:4/4] [G,CE][E,C][C,C][C,C] [D,B,]2 [G,B,]2 |[M:7/8] [C,G,C]-[C,G,C]-[C,G,C]- [C,G,C]3 z |] %18

